X:1
T:Ilse, 86.86.88
T:Ludwig Herman Ilse, 1910
T:Ilse, 86.86.88
T:Public Domain
C:Ludwig Herman Ilse, 1910
Z:Public Domain
%%score 1 ( 2 3 )
L:1/8
M:4/4
K:Ab
V:1 treble 
V:2 bass 
V:3 bass 
V:1
 [CE]2 | [DF]2 [DG]2 [EA]2 [FB]2 | [Ec]2 [EB]2 [CA]2 [Ec]2 | [Ge]2 [Ed]2 [Ec]2 [EA]2 | %4
 [EB]6 [CE]2 | [DF]2 [DG]2 [EA]2 [FB]2 | [Ec]2 [EB]2 [CA]2 [Ec]2 | [Ge]2 [Ed]2 [Ec]2 [EA]2 | %8
 [EB]6 [GB]2 | [FB]2 [EG]2 [EA]2 [EB]2 | [Ac]2 [A=d]2 [Ge]2 [E_d]2 | [Ec]2 [Ee]2 [DG]2 [EA]2 | %12
 [FB]4 [EB]4 | [CA]6 |] %14
V:2
 [A,,A,]2 | [D,A,]2 [B,,B,]2 [C,A,]2 [D,A,]2 | [E,A,]2 [E,G,]2 [A,,A,]2 A,2 | %3
 [E,B,]2 [G,B,]2 A,2 [C,A,]2 | [E,G,]6 [A,,A,]2 | [D,A,]2 [B,,B,]2 [C,A,]2 [D,A,]2 | %6
 [E,A,]2 [E,G,]2 [A,,A,]2 A,2 | [E,B,]2 [G,B,]2 A,2 [C,A,]2 | [E,G,]6 [E,B,]2 | %9
 [=D,B,]2 [E,B,]2 [A,C]2 [G,B,]2 | [F,A,]2 [F,B,]2 [E,B,]2 [G,B,]2 | A,2 [C,A,]2 [B,,B,]2 [C,A,]2 | %12
 [D,A,]4 [E,G,]4 | [A,,A,]6 |] %14
V:3
 x2 | x8 | x6 A,2 | x4 A,2 x2 | x8 | x8 | x6 A,2 | x4 A,2 x2 | x8 | x8 | x8 | A,2 x6 | x8 | x6 |] %14

